Adwaita++-Light/emblems/22/emblem-symbolic-link.svg

<svg fill="none" height="22" viewBox="0 0 22 22" width="22" xmlns="http://www.w3.org/2000/svg">
  <path d="m8 6.01172c-2.77 0-5 2.23-5 4.99998 0 2.77 2.23 5 5 5h2v-2h-2c-1.662 0-3-1.338-3-3 0-1.66198 1.338-2.99998 3-2.99998h2v-2zm4 0v2h2c1.662 0 3 1.338 3 2.99998 0 1.662-1.338 3-3 3h-2v2h2c2.77 0 5-2.23 5-5 0-2.76998-2.23-4.99998-5-4.99998zm-4 3.99998v2h6v-2z" fill="#444"/>
</svg>

<svg width="22" height="22" viewBox="0 0 22 22" fill="none" xmlns="http://www.w3.org/2000/svg">
<path d="M8 6.01172C5.23 6.01172 3 8.24172 3 11.0117C3 13.7817 5.23 16.0117 8 16.0117H10V14.0117H8C6.338 14.0117 5 12.6737 5 11.0117C5 9.34972 6.338 8.01172 8 8.01172H10V6.01172H8ZM12 6.01172V8.01172H14C15.662 8.01172 17 9.34972 17 11.0117C17 12.6737 15.662 14.0117 14 14.0117H12V16.0117H14C16.77 16.0117 19 13.7817 19 11.0117C19 8.24172 16.77 6.01172 14 6.01172H12ZM8 10.0117V12.0117H14V10.0117H8Z" fill="#444444"/>
</svg>
